flaticon/transport/traffic-light-1.svg

<svg xmlns="http://www.w3.org/2000/svg" width="32" height="32" viewBox="0 0 24 24">
    <path d="M12 1.601562C10.679688 1.601562 9.601562 2.679688 9.601562 4 9.601562 5.320312 10.679688 6.398438 12 6.398438 13.320312 6.398438 14.398438 5.320312 14.398438 4 14.398438 2.679688 13.320312 1.601562 12 1.601562zM12 5.601562C11.121094 5.601562 10.398438 4.878906 10.398438 4 10.398438 3.121094 11.121094 2.398438 12 2.398438 12.878906 2.398438 13.601562 3.121094 13.601562 4 13.601562 4.878906 12.878906 5.601562 12 5.601562zM12 7.199219C10.679688 7.199219 9.601562 8.28125 9.601562 9.601562 9.601562 10.921875 10.679688 12 12 12 13.320312 12 14.398438 10.921875 14.398438 9.601562 14.398438 8.28125 13.320312 7.199219 12 7.199219zM12 11.199219C11.121094 11.199219 10.398438 10.480469 10.398438 9.601562 10.398438 8.71875 11.121094 8 12 8 12.878906 8 13.601562 8.71875 13.601562 9.601562 13.601562 10.480469 12.878906 11.199219 12 11.199219zM12 12.800781C10.679688 12.800781 9.601562 13.878906 9.601562 15.199219 9.601562 16.519531 10.679688 17.601562 12 17.601562 13.320312 17.601562 14.398438 16.519531 14.398438 15.199219 14.398438 13.878906 13.320312 12.800781 12 12.800781zM12 16.800781C11.121094 16.800781 10.398438 16.078125 10.398438 15.199219 10.398438 14.320312 11.121094 13.601562 12 13.601562 12.878906 13.601562 13.601562 14.320312 13.601562 15.199219 13.601562 16.078125 12.878906 16.800781 12 16.800781zM12 16.800781"/>
    <path d="M 21.199219 8.398438 C 21.441406 8.398438 21.601562 8.238281 21.601562 8 C 21.601562 7.761719 21.441406 7.601562 21.199219 7.601562 C 19.894531 7.601562 18.730469 8.234375 18 9.207031 L 18 6 C 18 4.238281 19.441406 2.800781 21.199219 2.800781 C 21.441406 2.800781 21.601562 2.640625 21.601562 2.398438 C 21.601562 2.160156 21.441406 2 21.199219 2 C 19.894531 2 18.730469 2.632812 18 3.605469 L 18 0.800781 L 19.199219 0.800781 C 19.441406 0.800781 19.601562 0.640625 19.601562 0.398438 C 19.601562 0.160156 19.441406 0 19.199219 0 L 4.800781 0 C 4.558594 0 4.398438 0.160156 4.398438 0.398438 C 4.398438 0.640625 4.558594 0.800781 4.800781 0.800781 L 6 0.800781 L 6 3.605469 C 5.269531 2.632812 4.105469 2 2.800781 2 C 2.558594 2 2.398438 2.160156 2.398438 2.398438 C 2.398438 2.640625 2.558594 2.800781 2.800781 2.800781 C 4.558594 2.800781 6 4.238281 6 6 L 6 9.207031 C 5.269531 8.234375 4.105469 7.601562 2.800781 7.601562 C 2.558594 7.601562 2.398438 7.761719 2.398438 8 C 2.398438 8.238281 2.558594 8.398438 2.800781 8.398438 C 4.558594 8.398438 6 9.839844 6 11.601562 L 6 14.808594 C 5.269531 13.832031 4.105469 13.199219 2.800781 13.199219 C 2.558594 13.199219 2.398438 13.359375 2.398438 13.601562 C 2.398438 13.839844 2.558594 14 2.800781 14 C 4.558594 14 6 15.441406 6 17.199219 L 6 18.121094 C 6 18.71875 6.480469 19.199219 7.078125 19.199219 L 9.199219 19.199219 L 9.199219 21.199219 C 9.199219 21.640625 9.558594 22 10 22 L 10 24 L 14 24 L 14 22 C 14.441406 22 14.800781 21.640625 14.800781 21.199219 L 14.800781 19.199219 L 16.921875 19.199219 C 17.519531 19.199219 18 18.71875 18 18.121094 L 18 17.199219 C 18 15.441406 19.441406 14 21.199219 14 C 21.441406 14 21.601562 13.839844 21.601562 13.601562 C 21.601562 13.359375 21.441406 13.199219 21.199219 13.199219 C 19.894531 13.199219 18.730469 13.832031 18 14.808594 L 18 11.601562 C 18 9.839844 19.441406 8.398438 21.199219 8.398438 Z M 13.199219 23.199219 L 10.800781 23.199219 L 10.800781 22 L 13.199219 22 Z M 14 21.199219 L 10 21.199219 L 10 19.199219 L 14 19.199219 Z M 17.199219 18.121094 C 17.199219 18.28125 17.078125 18.398438 16.921875 18.398438 L 7.078125 18.398438 C 6.921875 18.398438 6.800781 18.28125 6.800781 18.121094 L 6.800781 0.800781 L 17.199219 0.800781 Z M 17.199219 18.121094"/>
</svg>

<svg xmlns="http://www.w3.org/2000/svg" width="32" height="32" viewBox="0 0 24 24">
    <path d="M12 1.602A2.404 2.404 0 0 0 9.602 4 2.404 2.404 0 0 0 12 6.398 2.404 2.404 0 0 0 14.398 4 2.404 2.404 0 0 0 12 1.602zm0 4A1.609 1.609 0 0 1 10.398 4c0-.879.723-1.602 1.602-1.602.879 0 1.602.723 1.602 1.602 0 .879-.723 1.602-1.602 1.602zm0 0M12 7.2a2.407 2.407 0 0 0-2.398 2.402A2.404 2.404 0 0 0 12 12a2.404 2.404 0 0 0 2.398-2.398A2.407 2.407 0 0 0 12 7.199zm0 4a1.605 1.605 0 0 1-1.602-1.598C10.398 8.719 11.121 8 12 8c.879 0 1.602.719 1.602 1.602 0 .878-.723 1.597-1.602 1.597zm0 0M12 12.8a2.404 2.404 0 0 0-2.398 2.4A2.407 2.407 0 0 0 12 17.601a2.407 2.407 0 0 0 2.398-2.403A2.404 2.404 0 0 0 12 12.801zm0 4a1.609 1.609 0 0 1-1.602-1.6c0-.88.723-1.598 1.602-1.598.879 0 1.602.718 1.602 1.597 0 .88-.723 1.602-1.602 1.602zm0 0"/>
    <path d="M21.2 8.398c.241 0 .402-.16.402-.398 0-.238-.16-.398-.403-.398A4 4 0 0 0 18 9.207V6c0-1.762 1.441-3.2 3.2-3.2.241 0 .402-.16.402-.402 0-.238-.16-.398-.403-.398A4 4 0 0 0 18 3.605V.801h1.2c.241 0 .402-.16.402-.403 0-.238-.16-.398-.403-.398H4.801c-.242 0-.403.16-.403.398 0 .243.16.403.403.403H6v2.804A4 4 0 0 0 2.8 2c-.241 0-.402.16-.402.398 0 .243.16.403.403.403C4.559 2.8 6 4.238 6 6v3.207a4 4 0 0 0-3.2-1.605c-.241 0-.402.16-.402.398 0 .238.16.398.403.398C4.559 8.398 6 9.84 6 11.602v3.207a3.993 3.993 0 0 0-3.2-1.61c-.241 0-.402.16-.402.403 0 .238.16.398.403.398A3.21 3.21 0 0 1 6 17.2v.921c0 .598.48 1.078 1.078 1.078H9.2v2c0 .442.36.801.801.801v2h4v-2c.441 0 .8-.36.8-.8v-2h2.122c.598 0 1.078-.481 1.078-1.079V17.2A3.21 3.21 0 0 1 21.2 14c.241 0 .402-.16.402-.398 0-.243-.16-.403-.403-.403A3.993 3.993 0 0 0 18 14.81v-3.207a3.212 3.212 0 0 1 3.2-3.204zm-8 14.801h-2.4V22h2.4zm.8-2h-4v-2h4zm3.2-3.078c0 .16-.122.277-.278.277H7.078a.271.271 0 0 1-.277-.277V.801h10.398zm0 0"/>
</svg>
